X:741
T:Mull Rant, The
R:Strathspey
B:The Athole Collection
M:C|
L:1/8
K:D
D>EG>E A/A/A A2|D>EG>A =c/c/c c>e|dB|
G>AB>G E2D2:|
g>ag>e a>ga>b|g>ag>e g<d d>e|g>ag>e a>ga>b|gf g2 f>e|
d>Bg>B A/A/A A2|D>EG>A =c/c/c c>e|d>Bg>B A/A/A A>B|
G>AB>G E2D2||
